_includes/svg/facebook.svg

<?xml version="1.0" encoding="iso-8859-1"?>
<!-- Generator: Adobe Illustrator 16.0.0, SVG Export Plug-In . SVG Version: 6.00 Build 0)  -->
<!DOCTYPE svg PUBLIC "-//W3C//DTD SVG 1.1//EN" "http://www.w3.org/Graphics/SVG/1.1/DTD/svg11.dtd">
<svg version="1.1" id="Capa_1" xmlns="http://www.w3.org/2000/svg" xmlns:xlink="http://www.w3.org/1999/xlink" x="0px" y="0px"
	 width="90px" height="90px" viewBox="0 0 90 90" style="enable-background:new 0 0 90 90;" xml:space="preserve">
<g>
	<path id="Facebook__x28_alt_x29_" d="M90,15.001C90,7.119,82.884,0,75,0H15C7.116,0,0,7.119,0,15.001v59.998
		C0,82.881,7.116,90,15.001,90H45V56H34V41h11v-5.844C45,25.077,52.568,16,61.875,16H74v15H61.875C60.548,31,59,32.611,59,35.024V41
		h15v15H59v34h16c7.884,0,15-7.119,15-15.001V15.001z"/>
</g>
</svg>

<?xml version="1.0" encoding="UTF-8" standalone="no"?>
<!DOCTYPE svg PUBLIC "-//W3C//DTD SVG 1.1//EN" "http://www.w3.org/Graphics/SVG/1.1/DTD/svg11.dtd">
<svg width="100%" height="100%" viewBox="0 0 33 33" version="1.1" xmlns="http://www.w3.org/2000/svg" xmlns:xlink="http://www.w3.org/1999/xlink" xml:space="preserve" xmlns:serif="http://www.serif.com/" style="fill-rule:evenodd;clip-rule:evenodd;stroke-linejoin:round;stroke-miterlimit:2;">
    <g transform="matrix(1,0,0,1,-855,-353)">
        <g id="Plan-de-travail1" serif:id="Plan de travail1" transform="matrix(1,0,0,1.69333,0,0)">
            <rect x="0" y="0" width="1920" height="1200" style="fill:none;"/>
            <g>
                <g transform="matrix(0.315021,0,0,0.187606,-1926.29,8.84496)">
                    <g>
                        <g id="ruban">
                        </g>
                    </g>
                </g>
                <g transform="matrix(1,0,0,0.590551,407.595,-229.134)">
                    <g id="facebook" transform="matrix(0.322222,0,0,0.322222,464.165,758.021)">
                        <g transform="matrix(1,0,0,1,-45,-45)">
                            <g>
                                <path id="Facebook__x28_alt_x29_" d="M90,15.001C90,7.119 82.884,0 75,0L15,0C7.116,0 0,7.119 0,15.001L0,74.999C0,82.881 7.116,90 15.001,90L45,90L45,56L34,56L34,41L45,41L45,35.156C45,25.077 52.568,16 61.875,16L74,16L74,31L61.875,31C60.548,31 59,32.611 59,35.024L59,41L74,41L74,56L59,56L59,90L75,90C82.884,90 90,82.881 90,74.999L90,15.001Z" style="fill:rgb(86,86,86);fill-rule:nonzero;"/>
                            </g>
                        </g>
                    </g>
                </g>
            </g>
        </g>
    </g>
</svg>
